!! 00000] TT[WS
!!!OTL: Tiao nÅxÅ
!!!ARE: Asia, China, Shanxi Yingxian
!! Ethnic Group: Han
!! WII, 139
!!!SCT: J0613
!!!YEM: Copyright 1995, estate of Helmut Schaffrath.
**kern
*ICvox
*Ivox
*M2/4
*k[f#]
*G:
{8b
16b
16a
8b
8a
=1
4b
4b
=2
8b
16b
16a
8b
8a
=3
4g
4g}
=4
{8b
8a
4b
=5
8a
8b
8a
8e
=6
8.g
16a
8b
8b
=7
8a
8b
8a
8e
=8
8g
8a
8g
8e
=9
8d
8d
4r}
=10
{8r
8ee
8dd
8dd
=11
8r
8ee
8dd
8dd
=12
8r
8ee
8dd
8dd
=13
8r
8ee
8dd
8dd}
==
!!!AGN: Xiaodiao. Qingge, Aisu
!!!ONB: ESAC (Essen Associative Code) Database: CHINA
!!!AMT: simple duple
!!!AIN: vox
!!!EED: Helmut Schaffrath
!!!EEV: 1.0
*-
